images/icons/Icontvwhite.svg

<svg width="52" height="43" viewBox="0 0 52 43" fill="none" xmlns="http://www.w3.org/2000/svg">
<path fill-rule="evenodd" clip-rule="evenodd" d="M25.9993 0.374023L44.1834 0.888156C47.3964 0.979001 50.054 3.41814 50.4194 6.61164C51.2282 13.6807 51.2282 20.8189 50.4194 27.8879C50.054 31.0814 47.3964 33.5205 44.1834 33.6114L29.1244 34.0372V39.1248H38.4994C39.5349 39.1248 40.3744 39.9643 40.3744 40.9998C40.3744 42.0353 39.5349 42.8748 38.4994 42.8748H13.4994C12.4638 42.8748 11.6244 42.0353 11.6244 40.9998C11.6244 39.9643 12.4638 39.1248 13.4994 39.1248H22.8744V34.0372L7.81525 33.6114C4.6022 33.5205 1.94466 31.0814 1.57927 27.8879C0.770453 20.8189 0.770453 13.6807 1.57927 6.61163C1.94466 3.41814 4.6022 0.979001 7.81525 0.888156L25.9993 0.374023ZM8.49936 25.3748C7.46382 25.3748 6.62436 26.2143 6.62436 27.2498C6.62436 28.2853 7.46382 29.1248 8.49936 29.1248H43.4994C44.5349 29.1248 45.3744 28.2853 45.3744 27.2498C45.3744 26.2143 44.5349 25.3748 43.4994 25.3748H8.49936Z" fill="white"/>
</svg>

<svg width="52" height="43" fill="none" xmlns="http://www.w3.org/2000/svg"><path fill-rule="evenodd" clip-rule="evenodd" d="m26 .374 18.183.514a6.46 6.46 0 0 1 6.236 5.724 93.585 93.585 0 0 1 0 21.276 6.46 6.46 0 0 1-6.236 5.723l-15.059.426v5.088H38.5a1.875 1.875 0 0 1 0 3.75h-25a1.875 1.875 0 1 1 0-3.75h9.375v-5.088l-15.059-.426a6.46 6.46 0 0 1-6.236-5.723 93.584 93.584 0 0 1 0-21.276A6.46 6.46 0 0 1 7.815.888L26 .374Zm-17.5 25a1.875 1.875 0 0 0 0 3.75h35a1.875 1.875 0 0 0 0-3.75h-35Z" fill="#fff"/></svg>
